@stellar/design-system/src/assets/logos/stellar.svg

<svg width="128" height="32" viewBox="0 0 128 32" fill="none" xmlns="http://www.w3.org/2000/svg"><g clip-path="url(#clip0_364_4210)"><path d="M18.6868 0C20.8183 0 22.8813 0.419139 24.833 1.24031C25.8688 1.67656 26.8618 2.23256 27.7863 2.88265L27.5894 2.9853L25.0556 4.27693C23.121 3.19914 20.921 2.63459 18.6868 2.63459H18.5841C16.8635 2.6517 15.1857 2.99385 13.6021 3.6525C12.0185 4.3197 10.5975 5.26918 9.38193 6.48383C6.89948 8.973 5.52986 12.2748 5.52986 15.7819C5.52986 16.355 5.5641 16.9281 5.64114 17.5012L5.66682 17.6808L5.82947 17.5953L37.3565 1.52259V4.48222L32.0749 7.17669L29.4812 8.49399L6.42868 20.2555L6.32595 20.3154L3.94623 21.5215V21.513L3.83495 21.5643L0 23.5231V20.5635L1.30114 19.9048C2.38828 19.3488 3.03886 18.2026 2.94469 16.9794C2.91901 16.5774 2.90189 16.1754 2.90189 15.7733C2.90189 13.6434 3.32134 11.5734 4.14312 9.6231C4.93921 7.74125 6.07771 6.05614 7.52438 4.60198C8.97104 3.15638 10.6574 2.01016 12.5406 1.21465C14.4838 0.419139 16.5553 0 18.6868 0Z" fill="black"/><path d="M55.7266 5.05533C59.5359 5.06389 62.9514 6.75755 63.7732 10.8463H60.8798C60.1522 8.39134 57.7554 7.57017 55.6153 7.57017C53.9803 7.57017 51.1127 8.29725 51.1127 10.6667C51.1127 12.54 52.6022 13.4723 54.5624 13.9086L57.0192 14.4646C60.2635 15.166 64.1498 16.3892 64.1498 20.6576C64.1498 24.8062 60.2892 26.996 56.0776 26.996C51.0784 26.996 47.9198 24.2759 47.3633 20.0417H50.2909C50.8473 22.9671 52.8932 24.4812 56.1375 24.4812C59.262 24.4812 61.0767 22.9928 61.0767 20.9142C61.0767 18.6902 59.1764 17.7578 56.5141 17.1762L53.8862 16.6202C50.9928 15.9786 48.0653 14.3705 48.0653 10.8377C48.0653 6.80888 52.3025 5.05533 55.7266 5.05533Z" fill="black"/><path d="M71.7855 26.6196C68.7723 26.6196 68.0704 25.9439 68.0704 22.6763V13.0361H65.5879V10.9062H68.0704V6.96285H70.7326V10.9062H73.7115V13.0361H70.7326V22.3512C70.7326 23.985 70.8524 24.3956 72.3676 24.3956H73.7115V26.6196H71.7855Z" fill="black"/><path fill-rule="evenodd" clip-rule="evenodd" d="M87.014 22.069C86.3377 23.6172 85.0537 24.6693 82.7168 24.6693C80.3799 24.6693 77.983 23.027 77.8546 19.6397H89.9587C90.3096 14.6699 87.4163 10.641 82.6226 10.641C78.3254 10.641 74.9955 13.823 74.9955 18.7928C74.9955 23.4376 77.7433 27.0045 82.7168 27.0045C86.5432 27.0045 89.0342 24.7891 89.7618 22.069H87.014ZM82.6312 12.9249C85.4389 12.9249 87.0996 15.1403 87.1595 17.3643H77.8974C78.1285 14.208 80.26 12.9249 82.6312 12.9249Z" fill="black"/><path fill-rule="evenodd" clip-rule="evenodd" d="M103.544 22.471C103.535 18.7672 107.712 17.6808 114.175 16.9538V16.5774C114.175 13.7118 112.566 12.7538 110.606 12.7538C108.414 12.7538 107.13 13.9514 107.01 15.876H104.263C104.528 12.4886 107.507 10.5897 110.58 10.5897C114.903 10.5897 116.863 12.6597 116.838 17.0735L116.812 20.6918C116.786 23.3178 116.932 25.1313 117.223 26.6196H114.535C114.449 26.038 114.364 25.3964 114.329 24.4555C113.362 26.0636 111.727 26.996 108.954 26.996C106 26.996 103.544 25.3622 103.544 22.471ZM106.488 22.4197C106.488 23.908 107.627 24.9003 109.527 24.9003C112.01 24.9003 114.381 23.7626 114.381 20.0503V19.058C109.553 19.5541 106.488 20.2555 106.488 22.4197Z" fill="black"/><path d="M122.83 18.3908C122.83 14.9436 124.054 13.5664 126.511 13.5664C126.855 13.5664 127.237 13.6037 127.657 13.6447C127.768 13.6556 127.883 13.6668 128 13.6776V10.8463C127.709 10.8206 127.478 10.8206 127.212 10.8206C125.167 10.8805 123.557 11.8728 122.77 13.652V10.9062H120.167V26.6282H122.83V18.3908Z" fill="black"/><path d="M36.0639 12.0609L37.3651 11.4023V8.44266L7.85822 23.4804L5.2645 24.7976L0 27.4836V30.4432L31.527 14.4047L31.6897 14.3192L31.7154 14.4988C31.7924 15.0719 31.8267 15.6536 31.8267 16.2267C31.8267 19.7338 30.457 23.0441 27.9746 25.5247C26.759 26.7394 25.3381 27.6889 23.7544 28.3561C22.1708 29.0233 20.493 29.3654 18.7724 29.374H18.6783C16.4355 29.374 14.227 28.8009 12.2924 27.7231L12.1897 27.7744L9.57025 29.1088C10.4947 29.7589 11.4877 30.3149 12.5321 30.7597C14.4838 31.5809 16.5468 32 18.6783 32C20.8097 32 22.8813 31.5809 24.8244 30.7597C26.6991 29.9642 28.394 28.8265 29.8407 27.3724C31.2874 25.9182 32.4259 24.2331 33.222 22.3512C34.0437 20.401 34.4632 18.3309 34.4632 16.201C34.4632 15.799 34.4546 15.3884 34.4204 14.9864C34.3262 13.7632 34.9768 12.6169 36.0639 12.0609Z" fill="black"/><path d="M92.4839 26.6196V5.44026H95.1461V26.6196H92.4839Z" fill="black"/><path d="M98.4161 5.44026V26.6196H101.078V5.44026H98.4161Z" fill="black"/></g><defs><clipPath id="clip0_364_4210"><rect width="128" height="32" fill="white"/></clipPath></defs></svg>

<svg xmlns="http://www.w3.org/2000/svg" width="128" height="32" viewBox="0 0 128 32" fill="currentColor"><g clip-path="url(#a)"><path d="M18.687 0a15.749 15.749 0 0 1 9.1 2.883l-.198.102-2.533 1.292a13.102 13.102 0 0 0-6.37-1.642h-.102c-1.72.017-3.398.359-4.982 1.018a13.174 13.174 0 0 0-4.22 2.83 13.087 13.087 0 0 0-3.852 9.299c0 .573.034 1.146.111 1.72l.026.179.162-.086L37.356 1.523v2.96l-5.281 2.694-2.594 1.317L6.43 20.256l-.103.06-2.38 1.206v-.009l-.111.051L0 23.524v-2.96l1.301-.66a3.02 3.02 0 0 0 1.644-2.925 18.92 18.92 0 0 1-.043-1.206A15.76 15.76 0 0 1 7.524 4.602a15.742 15.742 0 0 1 5.017-3.387A16.169 16.169 0 0 1 18.687 0Zm37.04 5.055c3.809.009 7.224 1.703 8.046 5.791H60.88c-.728-2.455-3.125-3.276-5.265-3.276-1.635 0-4.502.727-4.502 3.097 0 1.873 1.49 2.805 3.45 3.242l2.456.556c3.245.701 7.13 1.924 7.13 6.193 0 4.148-3.86 6.338-8.071 6.338-5 0-8.158-2.72-8.715-6.954h2.928c.556 2.925 2.602 4.44 5.847 4.44 3.124 0 4.939-1.49 4.939-3.568 0-2.224-1.9-3.156-4.563-3.738l-2.628-.556c-2.893-.641-5.82-2.25-5.82-5.782 0-4.03 4.236-5.783 7.66-5.783ZM71.785 26.62c-3.013 0-3.715-.676-3.715-3.944v-9.64h-2.482v-2.13h2.482V6.963h2.663v3.943h2.978v2.13h-2.978v9.315c0 1.634.12 2.045 1.635 2.045h1.344v2.224h-1.927Z"/><path d="M87.014 22.069c-.676 1.548-1.96 2.6-4.297 2.6-2.337 0-4.734-1.642-4.862-5.03h12.104c.35-4.97-2.543-8.998-7.336-8.998-4.298 0-7.627 3.182-7.627 8.152 0 4.645 2.747 8.212 7.72 8.212 3.827 0 6.318-2.216 7.046-4.936h-2.748Zm-4.383-9.144c2.808 0 4.469 2.215 4.528 4.44h-9.262c.231-3.157 2.363-4.44 4.734-4.44Zm20.913 9.546c-.009-3.704 4.168-4.79 10.631-5.517v-.377c0-2.865-1.609-3.823-3.569-3.823-2.192 0-3.476 1.197-3.596 3.122h-2.747c.265-3.387 3.244-5.286 6.317-5.286 4.323 0 6.283 2.07 6.258 6.483l-.026 3.619c-.026 2.626.12 4.44.411 5.928h-2.688a18.313 18.313 0 0 1-.206-2.165c-.967 1.609-2.602 2.541-5.375 2.541-2.954 0-5.41-1.634-5.41-4.525Zm2.944-.051c0 1.488 1.139 2.48 3.039 2.48 2.483 0 4.854-1.137 4.854-4.85v-.992c-4.828.496-7.893 1.198-7.893 3.362Z" clip-rule="evenodd"/><path d="M122.83 18.39c0-3.446 1.224-4.824 3.681-4.824.344 0 .726.038 1.146.079l.343.033v-2.832c-.291-.025-.522-.025-.788-.025-2.045.06-3.655 1.052-4.442 2.831v-2.746h-2.603v15.722h2.663v-8.237Zm-86.766-6.33 1.301-.658v-2.96L7.858 23.48l-2.593 1.318L0 27.484v2.96l31.527-16.04.163-.085.025.18c.077.573.112 1.155.112 1.728 0 3.507-1.37 6.817-3.852 9.298a13.173 13.173 0 0 1-4.22 2.831 12.939 12.939 0 0 1-4.983 1.018h-.094a13.15 13.15 0 0 1-6.386-1.65l-.102.05-2.62 1.335c.925.65 1.918 1.206 2.962 1.65A15.748 15.748 0 0 0 18.678 32a15.717 15.717 0 0 0 11.163-4.628 15.76 15.76 0 0 0 4.623-11.171c0-.402-.01-.813-.044-1.215a3.02 3.02 0 0 1 1.644-2.925Zm56.42 14.56V5.44h2.662v21.18h-2.662Zm5.932-21.18v21.18h2.662V5.44h-2.662Z"/></g><defs><clipPath id="a"><path fill="#fff" d="M0 0h128v32H0z"/></clipPath></defs></svg>
